X:5672
T:Gan Ainm
R:Reel
S:Seamus Egan
H:
N:
D:Solo Album #1 
Z:Adrian Scahill
M:4/4
L:1/8
K:G
E2GB edBA|G3A FDD2|EDEF GFGA|Bdef gefd|\
eagf eDEF|GBAG FDD2|EDEF GBed|BAGF E4:||\
e3f g2fg|edBG EGBG|Bdde effe|dBAF DEFA|\
Beef g2fg|edBG EGBG|Adde effe|dBAF E4:||


